assets/ui/UI_V2/TopDock_V2/Save_V2.svg

<?xml version="1.0" encoding="UTF-8" standalone="no"?>
<svg
   width="128"
   height="128"
   viewBox="0 0 128 128"
   fill="none"
   version="1.1"
   id="svg15"
   sodipodi:docname="Save_V2.svg"
   inkscape:version="1.1.1 (3bf5ae0d25, 2021-09-20)"
   xmlns:inkscape="http://www.inkscape.org/namespaces/inkscape"
   xmlns:sodipodi="http://sodipodi.sourceforge.net/DTD/sodipodi-0.dtd"
   xmlns="http://www.w3.org/2000/svg"
   xmlns:svg="http://www.w3.org/2000/svg">
  <defs
     id="defs19" />
  <sodipodi:namedview
     id="namedview17"
     pagecolor="#ffffff"
     bordercolor="#666666"
     borderopacity="1.0"
     inkscape:pageshadow="2"
     inkscape:pageopacity="0.0"
     inkscape:pagecheckerboard="true"
     showgrid="false"
     inkscape:zoom="3.3503393"
     inkscape:cx="36.264984"
     inkscape:cy="48.651789"
     inkscape:window-width="1920"
     inkscape:window-height="1000"
     inkscape:window-x="-11"
     inkscape:window-y="-11"
     inkscape:window-maximized="1"
     inkscape:current-layer="svg15" />
  <path
     d="m 64,10.666667 c 0,-2.5247394 2.046781,-4.5714289 4.571429,-4.5714289 v 0 c 2.524647,0 4.571428,2.0466895 4.571428,4.5714289 v 12.190476 c 0,2.524739 -2.046781,4.571428 -4.571428,4.571428 v 0 C 66.046781,27.428571 64,25.381882 64,22.857143 Z"
     fill="#D9D9D9"
     id="path2"
     style="fill:#ffffff;stroke-width:3.04762" />
  <mask
     id="path-2-inside-1_340_2510"
     fill="#ffffff">
    <path
       fill-rule="evenodd"
       clip-rule="evenodd"
       d="M 0,39 V 3 C 0,1.34315 1.34315,0 3,0 h 3 c 1.65685,0 3,1.34315 3,3 v 5.17742 c 0,1.65686 1.3431,2.99998 3,2.99998 h 11.4923 c 1.6569,0 3,-1.34313 3,-2.99998 V 3 c 0,-1.65686 1.3432,-3 3,-3 h 2.8234 c 0.8202,0 1.6046,0.335842 2.1708,0.929368 L 41.1708,7.93716 C 41.7031,8.49515 42,9.23666 42,10.0078 V 39 c 0,1.6569 -1.3431,3 -3,3 H 3 C 1.34315,42 0,40.6569 0,39 Z M 11.4004,17.4004 c -1.65686,0 -3.00001,1.3431 -3.00001,3 v 13.2 c 0,1.6568 1.34315,3 3.00001,3 h 19.8 c 1.6568,0 3,-1.3432 3,-3 v -13.2 c 0,-1.6569 -1.3432,-3 -3,-3 z"
       id="path4" />
  </mask>
  <path
     fill-rule="evenodd"
     clip-rule="evenodd"
     d="M 0,118.85714 V 9.1428571 C 0,4.0934095 4.0934095,0 9.1428571,0 h 9.1428569 c 5.049448,0 9.142857,4.0934095 9.142857,9.1428571 V 24.921661 c 0,5.049478 4.093258,9.142796 9.142858,9.142796 h 35.024152 c 5.0496,0 9.142857,-4.093348 9.142857,-9.142796 V 9.1428571 C 80.738438,4.093379 84.832,0 89.881295,0 h 8.604648 c 2.499657,0 4.890207,1.0235185 6.615767,2.8323596 L 125.47291,24.18944 C 127.09516,25.889981 128,28.149821 128,30.499962 V 118.85714 C 128,123.90674 123.90674,128 118.85714,128 H 9.1428571 C 4.0934095,128 0,123.90674 0,118.85714 Z M 34.744076,53.02979 c -5.049478,0 -9.142887,4.093258 -9.142887,9.142858 v 40.228572 c 0,5.04929 4.093409,9.14286 9.142887,9.14286 h 60.342857 c 5.049297,0 9.142857,-4.09357 9.142857,-9.14286 V 62.172648 c 0,-5.0496 -4.09356,-9.142858 -9.142857,-9.142858 z"
     fill="#D9D9D9"
     id="path7"
     style="fill:#ffffff;stroke-width:3.04762" />
  <path
     d="M 34.4865,0.929368 32.3157,3 V 3 Z M 41.1708,7.93716 39,10.0078 v 0 z M -3,3 V 39 H 3 V 3 Z m 6,-6 c -3.31371,0 -6,2.686294 -6,6 h 6 v 0 z m 3,0 H 3 v 6 h 3 z m 6,6 C 12,-0.313709 9.31371,-3 6,-3 v 6 0 z m 0,5.17742 V 3 H 6 v 5.17742 z m 0,0 v 0 H 6 c 0,3.31368 2.6863,5.99998 6,5.99998 z m 11.4923,0 H 12 v 5.99998 h 11.4923 z m 0,0 v 5.99998 c 3.3137,0 6,-2.6863 6,-5.99998 z M 23.4923,3 v 5.17742 h 6 V 3 Z m 6,-6 c -3.3137,0 -6,2.686286 -6,6 h 6 v 0 z m 2.8234,0 h -2.8234 v 6 h 2.8234 z m 4.3416,1.85874 C 35.525,-2.32832 33.9561,-3 32.3157,-3 V 3 3 Z M 43.3417,5.86652 36.6573,-1.14126 32.3157,3 39,10.0078 Z M 45,10.0078 C 45,8.46554 44.4061,6.98251 43.3416,5.86652 L 39,10.0078 v 0 z M 45,39 V 10.0078 H 39 V 39 Z m -6,6 c 3.3137,0 6,-2.6863 6,-6 h -6 v 0 z M 3,45 H 39 V 39 H 3 Z m -6,-6 c 0,3.3137 2.686294,6 6,6 v -6 0 z M 11.4004,20.4004 v 0 -6 c -3.31372,0 -6.00001,2.6863 -6.00001,6 z m 0,13.2 v -13.2 H 5.40039 v 13.2 z m 0,0 v 0 H 5.40039 c 0,3.3137 2.6863,6 6.00001,6 z m 19.8,0 h -19.8 v 6 h 19.8 z m 0,0 v 0 6 c 3.3137,0 6,-2.6863 6,-6 z m 0,-13.2 v 13.2 h 6 v -13.2 z m 0,0 v 0 h 6 c 0,-3.3137 -2.6863,-6 -6,-6 z m -19.8,0 h 19.8 v -6 h -19.8 z"
     fill="#D9D9D9"
     mask="url(#path-2-inside-1_340_2510)"
     id="path9"
     style="fill:#ffffff"
     transform="scale(3.047619)" />
  <path
     d="m 38.095238,76.190476 c -2.524648,0 -4.571428,-2.046781 -4.571428,-4.571428 v 0 c 0,-2.524648 2.04678,-4.571429 4.571428,-4.571429 h 51.809524 c 2.524648,0 4.571428,2.046781 4.571428,4.571429 v 0 c 0,2.524647 -2.04678,4.571428 -4.571428,4.571428 z"
     fill="#D9D9D9"
     id="path11"
     style="fill:#ffffff;stroke-width:3.04762" />
  <path
     d="m 38.095238,97.52381 c -2.524648,0 -4.571428,-2.046781 -4.571428,-4.571429 v 0 c 0,-2.524648 2.04678,-4.571429 4.571428,-4.571429 h 51.809524 c 2.524648,0 4.571428,2.046781 4.571428,4.571429 v 0 c 0,2.524648 -2.04678,4.571429 -4.571428,4.571429 z"
     fill="#D9D9D9"
     id="path13"
     style="fill:#ffffff;stroke-width:3.04762" />
</svg>

<svg width="42" height="42" viewBox="0 0 42 42" fill="none" xmlns="http://www.w3.org/2000/svg">
<path d="M21 3.5C21 2.67157 21.6716 2 22.5 2V2C23.3284 2 24 2.67157 24 3.5V7.5C24 8.32843 23.3284 9 22.5 9V9C21.6716 9 21 8.32843 21 7.5V3.5Z" fill="#D9D9D9"/>
<mask id="path-2-inside-1_340_2510" fill="white">
<path fill-rule="evenodd" clip-rule="evenodd" d="M0 39V3C0 1.34315 1.34315 0 3 0H6C7.65685 0 9 1.34315 9 3V8.17742C9 9.83428 10.3431 11.1774 12 11.1774H23.4923C25.1492 11.1774 26.4923 9.83427 26.4923 8.17742V3C26.4923 1.34314 27.8355 0 29.4923 0H32.3157C33.1359 0 33.9203 0.335842 34.4865 0.929368L41.1708 7.93716C41.7031 8.49515 42 9.23666 42 10.0078V39C42 40.6569 40.6569 42 39 42H3C1.34315 42 0 40.6569 0 39ZM11.4004 17.4004C9.74354 17.4004 8.40039 18.7435 8.40039 20.4004V33.6004C8.40039 35.2572 9.74354 36.6004 11.4004 36.6004H31.2004C32.8572 36.6004 34.2004 35.2572 34.2004 33.6004V20.4004C34.2004 18.7435 32.8572 17.4004 31.2004 17.4004H11.4004Z"/>
</mask>
<path fill-rule="evenodd" clip-rule="evenodd" d="M0 39V3C0 1.34315 1.34315 0 3 0H6C7.65685 0 9 1.34315 9 3V8.17742C9 9.83428 10.3431 11.1774 12 11.1774H23.4923C25.1492 11.1774 26.4923 9.83427 26.4923 8.17742V3C26.4923 1.34314 27.8355 0 29.4923 0H32.3157C33.1359 0 33.9203 0.335842 34.4865 0.929368L41.1708 7.93716C41.7031 8.49515 42 9.23666 42 10.0078V39C42 40.6569 40.6569 42 39 42H3C1.34315 42 0 40.6569 0 39ZM11.4004 17.4004C9.74354 17.4004 8.40039 18.7435 8.40039 20.4004V33.6004C8.40039 35.2572 9.74354 36.6004 11.4004 36.6004H31.2004C32.8572 36.6004 34.2004 35.2572 34.2004 33.6004V20.4004C34.2004 18.7435 32.8572 17.4004 31.2004 17.4004H11.4004Z" fill="#D9D9D9"/>
<path d="M34.4865 0.929368L32.3157 3L32.3157 3L34.4865 0.929368ZM41.1708 7.93716L39 10.0078L39 10.0078L41.1708 7.93716ZM-3 3V39H3V3H-3ZM3 -3C-0.31371 -3 -3 -0.313706 -3 3H3L3 3V-3ZM6 -3H3V3H6V-3ZM12 3C12 -0.313709 9.31371 -3 6 -3V3L6 3H12ZM12 8.17742V3H6V8.17742H12ZM12 8.17742V8.17742H6C6 11.4911 8.6863 14.1774 12 14.1774V8.17742ZM23.4923 8.17742H12V14.1774H23.4923V8.17742ZM23.4923 8.17742V14.1774C26.806 14.1774 29.4923 11.4911 29.4923 8.17742H23.4923ZM23.4923 3V8.17742H29.4923V3H23.4923ZM29.4923 -3C26.1786 -3 23.4923 -0.313714 23.4923 3H29.4923V3V-3ZM32.3157 -3H29.4923V3H32.3157V-3ZM36.6573 -1.14126C35.525 -2.32832 33.9561 -3 32.3157 -3V3L32.3157 3L36.6573 -1.14126ZM43.3417 5.86652L36.6573 -1.14126L32.3157 3L39 10.0078L43.3417 5.86652ZM45 10.0078C45 8.46554 44.4061 6.98251 43.3416 5.86652L39 10.0078L39 10.0078H45ZM45 39V10.0078H39V39H45ZM39 45C42.3137 45 45 42.3137 45 39H39V39V45ZM3 45H39V39H3V45ZM-3 39C-3 42.3137 -0.313706 45 3 45V39H3H-3ZM11.4004 20.4004V20.4004V14.4004C8.08668 14.4004 5.40039 17.0867 5.40039 20.4004H11.4004ZM11.4004 33.6004V20.4004H5.40039V33.6004H11.4004ZM11.4004 33.6004H11.4004H5.40039C5.40039 36.9141 8.08669 39.6004 11.4004 39.6004V33.6004ZM31.2004 33.6004H11.4004V39.6004H31.2004V33.6004ZM31.2004 33.6004V33.6004V39.6004C34.5141 39.6004 37.2004 36.9141 37.2004 33.6004H31.2004ZM31.2004 20.4004V33.6004H37.2004V20.4004H31.2004ZM31.2004 20.4004H31.2004H37.2004C37.2004 17.0867 34.5141 14.4004 31.2004 14.4004V20.4004ZM11.4004 20.4004H31.2004V14.4004H11.4004V20.4004Z" fill="#D9D9D9" mask="url(#path-2-inside-1_340_2510)"/>
<path d="M12.5 25C11.6716 25 11 24.3284 11 23.5V23.5C11 22.6716 11.6716 22 12.5 22L29.5 22C30.3284 22 31 22.6716 31 23.5V23.5C31 24.3284 30.3284 25 29.5 25L12.5 25Z" fill="#D9D9D9"/>
<path d="M12.5 32C11.6716 32 11 31.3284 11 30.5V30.5C11 29.6716 11.6716 29 12.5 29L29.5 29C30.3284 29 31 29.6716 31 30.5V30.5C31 31.3284 30.3284 32 29.5 32L12.5 32Z" fill="#D9D9D9"/>
</svg>
